X:1
T:Fourpence Ha'penny Farthing
M:6/8
S:J.Jackson MS
S:Chris Partington tradtunes 2010-6-23
Z:CGP
K:D
A |\
d2e fed | g2e f2A | d2e gfe | c2d ecA |
d2e fed | g2e f2A | faf gec | d3 d2 :|
|: g |\
fed c2A | ABA A2g | fed c2A | B2d g2g |
fed c2A | ABA A2g | faf gec | d3 d2 :|

